X:1
T:Out from the vale - Ward
T:#
%%score { 1 | 2 } 3 4 { 5 | 6 }
L:1/8
Q:1/4=100
M:2/2
K:Bb
V:1 treble nm="Soprano 1" snm="S"
V:2 treble 
V:3 treble nm="Alto" snm="A"
V:4 treble-8 nm="Tenor" snm="T"
V:5 bass nm="Bass I" snm="B"
V:6 bass 
V:1
"^Out from the vale" z8 | z8 | z8 | z8 | z8 |!f! d4 g4- | g4 ^f4 | g8- | %8
w: |||||Out from|* the|vale|
 g4"^John Ward\n(1571-1638)" f4 |[M:2/2] f4 (e4 | d8) | d6 c2 | B3 (A G4) | D8 | z8 | z4!p! d4 | %16
w: * of|deep des\-||pair, of|deep des\- *|pair||With|
 d8 | d8 | d8 | d8 | d8 | d8 | d8 | z2!mf! d2 c3 c x4 | d2 B2 c2 c2 | x8 | B3 B c2 c2 | B4 z4 | %28
w: mourn-|ful|tunes|I|fill|the|air,|with mourn- ful|tunes I fill the||air, I fill the|air,|
 z2 B2 A3 A | B2 d2 c3 c | B2 d2"^dim." d3 d | d2 d2 d3 d | d8 | z2!mf! A2 B2 c2 | d2 e2 f4- | %35
w: with mourn- ful|tunes I fill the|air, with mourn- ful|tunes I fill the|air,|To sa- tis-|fy my rest\-|
 f4 (e2 d2) | c2 B2 c3 c | d8 | z4 z2 D2 | D2 E2 F2 G2 | A2 (B2 c4) | B8- | B8 | z8 | z4 z2 A2 | %45
w: * less *|ghost, my rest- less|ghost,|to|sa- tis- fy my|rest- less *|ghost,|||to|
 B2 c2 d4- | d4 B4 | A2 (G2 A4) | =B8 | z8 | z8 | z4!f! d4- | d4 c4- | c4 B4 | A6 A2 | G4 g4- | %56
w: sa- tis- fy|* my|rest- less *|ghost,|||Which|* Daph\-|* ne's|cru- el-|ty, which|
 g4 f4- | f4 e4 | e4 d4 | c6 c2 | d4 B4- | B4 A2 G2 | ^F4"^dim." (G4- | G4 ^F4) | G2!mp! G2 d3 d | %65
w: * Daph\-|* ne's|cru- el-|ty hath|lost, her|* cru- el-|ty hath||lost. O'er hills and|
 B2 G2 A2 A2 | G4 z4 | z2 d2 d3 d | B2 G2 A2 A2 | G2 (Bc) d3 d | B2 B2 A2 G2 | A4 z4 | z2 d2 g3 g | %73
w: dales in her dull|ears,|o'er hills and|dales in her dull|ears, o'er * hills and|dales in her dull|ears,|in her dull|
 ^f4!mf! d4- | d4 c4- | c4 B4 | A4 (B2 c2) | d4 z4 | z8 |!f! d4 f4- | f4 (e2 d2) | c8 | e4 e4- | %83
w: ears I'll|* send|* my|notes, my *|notes||with bit\-|* ter *|tears,|with bit\-|
"^dim. al fine" e4 (d2 c2) | B8 | d4 d4- | d4 (c2 B2) | A4 G4- | G4 ^F4 |!pp! !fermata!G8 |] %90
w: * ter *|tears,|with bit\-|* ter *|tears, bit\-|* ter|tears.|
V:2
 z8 | z8 | z8 | z8 | z8 | z8 |!f! D4 d4- | d4 c4 | d8- |[M:2/2] d4 c4 | c4 B4 | A8 | z4 G2 A2 | %13
w: ||||||Out from|* the|vale|* of|deep des-|pair,|from the|
 B2 c2 d4- | d4 (B2 c2) | d8 | z8 | z2!p! B2 A3 A | B3 G A2 A2 | G4 z4 | z2 g2 ^f3 f | %21
w: vale of deep|* des\- *|pair||With mourn- ful|tunes I fill the|air.|with mourn- ful|
 g2 B2 A2 A2 | =B4!mf! d4 | f8 x4 | f8 | x8 | f8 | f8 | f8 | f8 | f2 B2"^dim." A3 A | B2 B2 A2 A2 | %32
w: tunes I fill the|air, with|mourn-|ful||tunes|I|fill|the|air, with mourn- ful|tunes I fill the|
 =B8 | z2!mf! ^F2 G2 A2 | B2 c2 d4- | d4 (c2 B2) | A2 B2 B2 A2 | B8- | B8 | z8 | z4 z2 A2 | %41
w: air,|To sa- tis-|fy my rest\-|* less *|ghost, my rest- less|ghost,|||to|
 B2 c2 d4- | d4 B4 | A4 (G4- | G4 ^F4) | G4 G4 | B2 c2 d4- | d2 (Bc) d3 d | d4!f! g4- | g4 f4- | %50
w: sa- tis- fy|* my|rest- less||ghost, to|sa- tis- fy|* my * rest- less|ghost, Which|* Daph\-|
 f4 e4 | d6 d2 | B4 G4 | A4 (B2 c2) | d8- | d8 | d4 d4- | d4 (c2 B2) | A4 B4 | B4 A4 | B4 d4- | %61
w: * ne's|cru- el-|ty hath|lost, hath *|lost,||which Daph\-|* ne's *|cru- el-|ty hath|lost, her|
 d4 c4- | c4"^dim." B4 | A6 A2 | =B8 | z8 | z2!mp! G2 d3 d | B2 G2 A2 A2 | G2 (Bc) d3 d | %69
w: * cru\-|* el-|ty hath|lost.||O'er hills and|dales in her dull|ears, o'er * hills and|
 B2 G2 A2 A2 | G4 z4 | z2 A2 B3 B | A2 ^F2 G (ABc) | d4!mf! B4- | B4 A4- | A4 G4 | ^F4 G4 | A8 | %78
w: dales in her dull|ears,|o'er hills and|dales in her dull * *|ears I'll|* send|* my|notes, my|notes|
 z8 |!f! A4 d4- | d4 (c2 B2) | A8 | c4 c4- |"^dim. al fine" c4 (B2 A2) | G8 | B4 B4- | B4 (A2 G2) | %87
w: |with bit\-|* ter *|tears,|with bit\-|* ter *|tears,|with bit\-|* ter *|
 ^F4 G4 | A6 A2 |!pp! !fermata!=B8 |] %90
w: tears, with|bit- ter|tears.|
V:3
 z8 | z8 |!f! A8 | B8- | B4 A4 | ^F4 G4 | A4 D4 | G8 | z8 |[M:2/2] z8 | D4 G4- | G4 ^F4 | G8 | %13
w: ||Out|from|* the|vale of|deep des-|pair,|||out from|* the|vale|
 G4 B4- | B2 (A2 G4) | ^F8 | z2!p! D2 D3 D | D2 D2 D2 D2 | D8 | z2 G2 ^F3 F | G2 B2 A2 A2 | %21
w: of deep|* des\- *|pair|With mourn- ful|tunes I fill the|air,|with mourn- ful|tunes I fill the|
 G2 G2 G2 ^F2 | G8 | z2!mf! F2 F3 F x4 | F2 F2 C2 C2 | x8 | D2 D2 C3 C | D2 F2 F3 F | F2 D2 C3 C | %29
w: air, I fill the|air,|with mourn- ful|tunes I fill the||air, with mourn- ful|tunes I fill the|air, with mourn- ful|
 D2 F2 F3 F | F2 F2"^dim." F2 F2 | F2 G2 G2 ^F2 | G8 | z8 | z8 | z8 | z8 | z2 F2 G2 A2 | %38
w: tunes I fill the|air, with mourn- ful|tunes I fill the|air,|||||To sa- tis-|
 B2 c2 d4- | d4 (c2 B2) | A2 G2 A2 D2 | D8- | D8 | D8 | D8 | z8 | D4 D2 E2 | F2 G2 G2 ^F2 | G8 | %49
w: fy my rest\-|* less *|ghost, my rest- less|ghost,|||||to sa- tis-|fy my rest- less|ghost,|
!f! G4 B4- | B4 G4 | G4 ^F4 | G6 G2 | D8- | D8 | z8 | z4 F4 | G6 B2 | F6 D2 | F4 F4 | F4 D4 | %61
w: Which Daph\-|* ne's|cru- el-|ty hath|lost,|||which|Daph- ne's|cru- el-|ty hath|lost, which|
 E6 E2 | ^F4"^dim." D4 | D6 D2 | D4 z2!mp! D2 | G3 G ^F2 D2 | D4 D4 | D4 z2 D2 | D3 D D2 D2 | %69
w: Daph- ne's|cru- el-|ty hath|lost. O'er|hills and dales in|her dull|ears, o'er|hills and dales in|
 D2 B,2 A,2 A,2 | B, (CDE) ^F2 G2 | G2 ^F2 G4 | A4 B2 B2 | A4 z4 | z8 | z8 | z8 | z4 A4 | %78
w: her dull ears, o'er|hills and * * dales in|her dull ears,|in her dull|ears,||||I'll|
!f! ^F4 G4 | A4 A4 | A8- | A4 (G2 F2) | E8 |"^dim. al fine" G4 G4- | G4 (F2 E2) | D8 | D6 (=E2 | %87
w: send my|notes with|bit\-|* ter *|tears,|with bit\-|* ter *|tears,|with bit\-|
 ^F4 D4) | D8 |!pp! !fermata!D8 |] %90
w: |ter|tears.|
V:4
 z8 |!f! d4 g4- | g4 ^f4 | g4 G4 | B6 c2 | d8- | d8 | B4 c4- | c4 A4 |[M:2/2][K:treble-8] B4 G4 | %10
w: |Out from|* the|vale of|deep des-|pair,||out from|* the|vale of|
 ^F4 G4 | A6 A2 | B2 c2 d4- | d2 c2 (B3 A) | G8 | d8 | z8 | z2!p! g2 ^f3 f | g2 G2 d2 d2 | %19
w: deep des-|pair, out|from the vale|* of deep *|des-|pair||With mourn- ful|tunes I fill the|
 G2 B2 A3 A | B2 d2 d3 d | d2 d2 d2 d2 | d8 | z2!mf! B2 A3 A x4 | B2 f2 f3 f | x8 | f8 | %27
w: air, with mourn- ful|tunes I fill the|air, I fill the|air,|with mourn- ful|tunes I fill the||air,|
 z2 d2 c3 c | d2 f2 f2 f2 | f2 f2 c3 c | d2 d2"^dim." d2 d2 | d2 B2 d2 d2 | d8 | z8 | z8 | z8 | %36
w: with mourn- ful|tunes I fill the|air, I fill the|air, with mourn- ful|tunes I fill the|air,||||
 z8 | z2!mf!!mf! d2 e2 f2 | g2 a2 b4- | b4 (a2 g2) | ^f2 g2 g2 f2 | g8 | z8 | z2 A2 B2 c2 | %44
w: |To sa- tis-|fy my rest\-|* less *|ghost, my rest- less|ghost,||to sa- tis-|
 d4 (d3 c) | B2 A2 G4- | G4 G4 | F2 B2 A2 d2 | d8- | d8 | z8 | z4!f! d4 | g8 | ^f4 g4- | g4 ^f4 | %55
w: fy my *|rest- less ghost,|* to|sa- tis- fy my|ghost,|||Which|Daph-|ne's cru\-|* el-|
 g6 g2 | d4 d4 | B8 | z8 | z8 | d4 f4- | f4 e4 | d6"^dim." d2 | A4 A4 | G8 | z2!mp! G2 d3 d | %66
w: ty hath|lost, hath|lost,|||which Daph\-|* ne's|cru- el-|ty hath|lost.|O'er hills and|
 B2 G2 A2 A2 | B2 B2 A2 d2 | g3 g ^f2 d2 | d4 d4 | d4 z2 G2 | d3 d B2 G2 | d4 d4 | d4!mf! d4- | %74
w: dales in her dull|ears, dull ears, o'er|hills and dales in|her dull|ears, o'er|hills and dales in|her dull|ears I'll|
 d4 A4- | A4 (B2 c2) | d4 d4- | d4 c4- | c4 B4 | A8 | z8 |!f! c4 e4- | e4 (d2 c2) | %83
w: * send|* my *|notes, I'll|* send|* my|notes||with bit\-|* ter *|
"^dim. al fine" B4 G4- | G4 d4- | d4 (c2 B2) | A4 d4 | d8 | A8 |!pp! !fermata!G8 |] %90
w: tears, with|* bit-|* ter *|tears. with|bit-|ter|tears.|
V:5
!f! G,8 | B,8 | A,8 | G,8- | G,4 ^F,4 | A,4 B,4 | A,8 | G,8 | A,4 A,4 |[M:2/2] G,8 | z8 | A,4 D4- | %12
w: Out|from|the|vale|* of|deep des-|pair,|Of|deep des-|pair.||out from|
 D4 D4 | B,4 G,4 | (G,2 A,2 B,2) G,2 | A,8 | z2!p! B,2 A,3 A, | B,2 G,2 A,2 A,2 | G,2 B,2 A,3 A, | %19
w: * the|vale of|deep * * des-|pair|With mourn- ful|tunes I fill the|air, with mourn- ful|
 B,2 G,2 A,2 A,2 | G,2 G,2 D,2 D,2 | G,2 G,2 A,2"^'" A,2 | G,8 | z12 | z2!mf! B,2 A,3 A, | %25
w: tunes I fill the|air, with mourn- ful|tunes I fill the|air,||with mourn- ful|
 B,2 B,2 F,2 F,2 | B,,2 B,2 A,3 A, | B,2 B,2 F,2 F,2 | B,,2 B,2 B,2 A,2 | B,2 B,2"^dim." F,3 F, | %30
w: tunes I fill the|air, with mourn- ful|tunes I fill the|air, I fill the|air, with mourn- ful|
 D,2 G,2 A,3 A, | G,8 | z8 | z4 z2!mf! F,2 | F,2 G,2 A,2 B,2 | C2 (D2 E4) | D8- | D8 | z8 | A,8 | %40
w: tunes I fill the|air,||To|sa- tis- fy my|rest- less *|ghost,|||to|
 G,3 A, B,4- | B,4 G,4 | ^F,4 B,4 | A,6 A,2 | G,2 A,2 B,2 C2 | D8- | D4 A,4 | G,8 |!f! D,4 D4- | %49
w: sa- tis- fy|* my|rest- less|ghost, to|sa- tis- fy my|rest\-|* less|ghost,|Which Daph\-|
 D4 (C2 B,2) | A,6 A,2 | G,8 | z8 | A,4 D4- | D4 B,4 | A,6 A,2 | G,6 G,2 | F,4 B,4 | C8 | %59
w: * ne's *|cru- el-|ty,||which Daph\-|* ne's|cru- el-|ty hath|lost, hath|lost,|
 (B,6 A,2) | G,6 G,2 | D4"^dim." G,4 | A,4 D,4 | D,8 | z4 z2!mp! A,2 | B,3 B, A,2 ^F,2 | %66
w: which *|Daph- ne's|cru- el-|ty hath|lost.|O'er|hills and dales in|
 G,2 G,2 ^F,4 | G,4 D,2 D,2 | G,3 G, ^F,2 D,2 | G, (A,B,C) D4 | z2 D2 D3 D | D2 D,2 B,2 D2 | A,8 | %73
w: her dull ears,|dull ears, o'er|hills and dales in|her dull * * ears,|o'er hills and|dales in her dull|ears|
"^\" z8 | z8 | z4!mf! B,4- | B,4 A,4- | A,4 G,4 | ^F,8 | z4!f! A,4 | C8- | C4 (B,2 A,2) | %82
w: ||I'll|* send|* my|notes|with|bit\-|* ter *|
"^dim. al fine" G,4 G,4 | B,8- | B,4 (A,2 G,2) | ^F,6 G,2 | A,4 B,4 | A,4 D,4 |!pp! !fermata!D,8 | %89
w: tears, with|bit\-|* ter *|tears, with|bit- ter,|bit- ter|tears.|
 x8 |] %90
w: |
V:6
 z8 | z8 | z8 | z8 |!f! D,8- | D,8 | D,8 | E,8 | D,8 |[M:2/2] B,,4 C,4 | D,8 | D,8 | G,,8 | %13
w: ||||Out|||from|the|vale of|deep|des-|pair,|
 G,,4 G,4- | G,2 (F,2 E,4) | D,8 | z2!p! G,2 ^F,3 F, | G,2 G,,2 D,2 D,2 | G,,2 G,2 ^F,3 F, | %19
w: of deep|* des\- *|pair|With mourn- ful|tunes I fill the|air, with mourn- ful|
 G,2 G,,2 D,2 D,2 | G,,4 z4 | z2 G,,2 D,2 D,2 | G,,8 | z8 x4 | z2!mf! B,,2 F,2 F,2 | %25
w: tunes I fill the|air,|I fill the|air.||I fill the|
 B,,2 B,2 A,3 A, | B,2 B,,2 F,2 F,2 | B,,4 z4 | z2 B,,2 F,2 F,2 | B,,2 B,,2"^dim." D,3 D, | %30
w: air, with mourn- ful|tunes I fill the|air,|I fill the|air, with mourn- ful|
 B,,2 G,,2 D,2 D,2 | G,,8 |!mf! D,8- | D,8 | F,8- | F,8 | B,,8 | B,,6 B,,2 | D,8 | D,8 | %40
w: tunes I fill the|air,|To||sa\-||tis-|fy my|rest-|less|
 G,,4 z2 G,,2 | B,,2 C,2 D,2 =E,2 | ^F,4 G,4 | D,8 | z4 G,,4 | G,,2 A,,2 B,,2 C,2 | D,6 D,2 | %47
w: ghost, to|sa- tis- fy my|rest- less|ghost,|to|sa- tis- fy- my|rest- less|
 G,,4!f! G,,4 | B,,8 | C,8 | D,8 | E,8 | D,8- | D,4 D,4 | G,,8 | D,8 | E,8 | F,8- | F,8 | B,,8 | %60
w: ghost, Which|Daph-|ne's|cru-|el-|ty|* hath|lost,|which|Daph-|ne's||cru-|
 C,8 | D,8 |"^dim." D,8 | G,,8 | z4 z2!mp! D,2 | G,3 G, ^F,2 D,2 | G,2 G,,2 D,4 | z8 | z8 | z8 | %70
w: el-|ty|hath|lost.|O'er|hills and dales in|her dull ears,||||
 z2 D,2 G,3 G, | ^F,2 D,2 B,,2 G,,2 | D,4!mf! D,4 | F,8 | G,8 | D,8- | D,8 | D,8 |!f! D,8 | F,8- | %80
w: o'er hills and|dales in her dull|ears I'll|send|my|notes|||with|bit\-|
 F,4 (E,2 D,2) | C,6 C,2 |"^dim. al fine" E,8- | E,4 D,2 C,2 | B,,6 C,2 | D,8- | D,8 | D,8 | %88
w: * ter *|tears, with|bit\-|* ter *|tears, with|bit\-||ter|
!pp! !fermata!G,,8 | x8 |] %90
w: tears.||

